svg/u2702.svg

<svg viewBox="0 0 128 128" xmlns="http://www.w3.org/2000/svg">
  <g>
    <g>
      <path d="M36.61,123.93L85.17,54.6l-7.99-15.61c-6.69,4.63-21.21,14.68-23.41,16.07 c-0.59,0.37-1.04,0.9-1.3,1.54c0,0-16.48,42.97-19.16,49.93c-2.91,7.57-2.96,10.64-2.21,12.9 C31.75,121.42,36.61,123.93,36.61,123.93z" fill="#82AEC0"/>
      <path d="M112.73,5.68c-10.25-4.65-22.88,1.09-28.21,12.83c-2.13,4.69-2.17,10.11-2.15,12.14 c0.03,2.8-4.29,6.87-5.66,8.08c-0.24,0.21-0.29,0.56-0.13,0.83l8.4,14.64c0.22,0.38,0.73,0.45,1.05,0.15l1.68-1.6 c4.65-3.59,8.96-3.37,10.63-3.13c9.08,1.29,18.79-4.35,23.29-14.26C126.97,23.62,122.98,10.33,112.73,5.68z M97.29,39.68 c-6.15-2.79-8.54-10.76-5.35-17.8c3.2-7.04,10.77-10.49,16.92-7.7c6.15,2.79,8.54,10.76,5.35,17.8 C111.02,39.03,103.44,42.48,97.29,39.68z" fill="#DE3E31"/>
    </g>
    <circle cx="64" cy="62.87" r="4.55" fill="#A8E3F0"/>
    <polygon points="49.17,65.19 60.65,89.61 64.47,84.15 49.9,63.29 " fill="#2F7889"/>
    <path d="M77.82,65.09l2.61-3.72l-1.89-5.18c-0.68-2-0.97-3.01-2.27-3.63l-11.53-4.98l-1.24,0.86L77.82,65.09 z" fill="#2F7889"/>
    <g>
      <path d="M91.39,123.93L42.83,54.6l7.72-15.8C57.11,43.34,72,53.65,74.23,55.05 c0.59,0.37,1.04,0.9,1.3,1.54c0,0,16.48,42.97,19.16,49.93c2.91,7.57,2.96,10.64,2.21,12.9 C96.25,121.42,91.39,123.93,91.39,123.93z" fill="#82AEC0"/>
      <path d="M60.05,76.15l-3.02-1.29l34.36,49.06c0,0,3.7-3.95-1.02-11.23L69.41,83.96 C67.12,80.5,63.87,77.78,60.05,76.15z" fill="#B9E4EA"/>
      <circle cx="64" cy="62.87" r="4.55" fill="#B9E4EA"/>
      <path d="M6.36,35.36c4.5,9.92,14.21,15.55,23.29,14.26c1.67-0.24,5.97-0.46,10.63,3.13l1.68,1.6 c0.32,0.3,0.83,0.23,1.05-0.15l8.4-14.64c0.16-0.28,0.11-0.62-0.13-0.83c-1.36-1.21-5.69-5.28-5.66-8.08 c0.02-2.03-0.02-7.45-2.15-12.14C38.15,6.77,25.52,1.03,15.27,5.68S1.03,23.62,6.36,35.36z M13.79,31.99 c-3.2-7.04-0.8-15.01,5.35-17.8c6.15-2.79,13.72,0.65,16.92,7.7c3.2,7.04,0.8,15.01-5.35,17.8 C24.56,42.48,16.98,39.03,13.79,31.99z" fill="#DE3E31"/>
    </g>
    <path d="M92.67,10.75c-0.6,0.71-0.95,1.76-0.38,2.65c0.63,0.99,3.45,1.1,9.37-3.02 c1.65-1.15,1.23-2.83-0.8-3.1C97.93,6.83,94.47,8.45,92.67,10.75z" fill="#FF7555"/>
    <path d="M17.71,11.7c-2.5,1.43-3.56,2.27-5.58,5.62c-0.63,1.04-2.06,3.73-3.49,2.51 c-0.94-0.8-0.87-2.65-0.28-4.33c1.21-3.41,3.29-5.91,6.21-7.39c1.05-0.53,3.63-1.36,5.06-0.8C22.43,8.4,19.91,10.45,17.71,11.7z" fill="#FF7555"/>
  </g>
</svg>

<svg viewBox="0 0 128 128" xmlns="http://www.w3.org/2000/svg">
  <defs/>
  <path d="M36.61,123.93 L85.17,54.6 L77.18,38.99 C70.49,43.62 55.97,53.67 53.77,55.06 C53.18,55.43 52.73,55.96 52.47,56.6 C52.47,56.6 35.99,99.57 33.31,106.53 C30.4,114.1 30.35,117.17 31.1,119.43 C31.75,121.42 36.61,123.93 36.61,123.93 Z" fill="#82AEC0"/>
  <path d="M112.73,5.68 C102.48,1.03 89.85,6.77 84.52,18.51 C82.39,23.2 82.35,28.62 82.37,30.65 C82.4,33.45 78.08,37.52 76.71,38.73 C76.47,38.94 76.42,39.29 76.58,39.56 L84.98,54.2 C85.2,54.58 85.71,54.65 86.03,54.35 L87.71,52.75 C92.36,49.16 96.67,49.38 98.34,49.62 C107.42,50.91 117.13,45.27 121.63,35.36 C126.97,23.62 122.98,10.33 112.73,5.68 Z M97.29,39.68 C91.14,36.89 88.75,28.92 91.94,21.88 C95.14,14.84 102.71,11.39 108.86,14.18 C115.01,16.97 117.4,24.94 114.21,31.98 C111.02,39.03 103.44,42.48 97.29,39.68 Z" fill="#DE3E31"/>
  <path d="M68.55,62.87 A4.55 4.55 0 1 1 59.45,62.87 A4.55 4.55 0 1 1 68.55,62.87 Z" fill="#A8E3F0"/>
  <path d="M49.17,65.19 L60.65,89.61 L64.47,84.15 L49.9,63.29 Z" fill="#2F7889"/>
  <path d="M77.82,65.09 L80.43,61.37 L78.54,56.19 C77.86,54.19 77.57,53.18 76.27,52.56 L64.74,47.58 L63.5,48.44 L77.82,65.09 Z" fill="#2F7889"/>
  <path d="M91.39,123.93 L42.83,54.6 L50.55,38.8 C57.11,43.34 72,53.65 74.23,55.05 C74.82,55.42 75.27,55.95 75.53,56.59 C75.53,56.59 92.01,99.56 94.69,106.52 C97.6,114.09 97.65,117.16 96.9,119.42 C96.25,121.42 91.39,123.93 91.39,123.93 Z" fill="#82AEC0"/>
  <path d="M60.05,76.15 L57.03,74.86 L91.39,123.92 C91.39,123.92 95.09,119.97 90.37,112.69 L69.41,83.96 C67.12,80.5 63.87,77.78 60.05,76.15 Z" fill="#B9E4EA"/>
  <path d="M68.55,62.87 A4.55 4.55 0 1 1 59.45,62.87 A4.55 4.55 0 1 1 68.55,62.87 Z" fill="#B9E4EA"/>
  <path d="M6.36,35.36 C10.86,45.28 20.57,50.91 29.65,49.62 C31.32,49.38 35.62,49.16 40.28,52.75 L41.96,54.35 C42.28,54.65 42.79,54.58 43.01,54.2 L51.41,39.56 C51.57,39.28 51.52,38.94 51.28,38.73 C49.92,37.52 45.59,33.45 45.62,30.65 C45.64,28.62 45.6,23.2 43.47,18.51 C38.15,6.77 25.52,1.03 15.27,5.68 C5.02,10.33 1.03,23.62 6.36,35.36 Z M13.79,31.99 C10.59,24.95 12.99,16.98 19.14,14.19 C25.29,11.4 32.86,14.84 36.06,21.89 C39.26,28.93 36.86,36.9 30.71,39.69 C24.56,42.48 16.98,39.03 13.79,31.99 Z" fill="#DE3E31"/>
  <path d="M92.67,10.75 C92.07,11.46 91.72,12.51 92.29,13.4 C92.92,14.39 95.74,14.5 101.66,10.38 C103.31,9.23 102.89,7.55 100.86,7.28 C97.93,6.83 94.47,8.45 92.67,10.75 Z" fill="#FF7555"/>
  <path d="M17.71,11.7 C15.21,13.13 14.15,13.97 12.13,17.32 C11.5,18.36 10.07,21.05 8.64,19.83 C7.7,19.03 7.77,17.18 8.36,15.5 C9.57,12.09 11.65,9.59 14.57,8.11 C15.62,7.58 18.2,6.75 19.63,7.31 C22.43,8.4 19.91,10.45 17.71,11.7 Z" fill="#FF7555"/>
</svg>
